X:1
T:Ariettes Oubliées
T:C'est L'Extase
T:1. C'est l'Extase
T:Claude Debussy
T:Paul Verlaine
T:Ariettes Oubliées
T:OpenScore (CC0) 
T:OpenScore (CC0) 
T:OpenScore (CC0) 
T:OpenScore (CC0) 
T:OpenScore (CC0) 
T:OpenScore (CC0) 
C:Claude Debussy
Z:Paul Verlaine
Z:OpenScore (CC0)
%%score 1 { ( 2 6 ) | ( 3 4 5 ) }
L:1/8
M:3/8
K:E
V:1 treble nm="CHANT"
V:2 treble nm="PIANO"
V:6 treble 
V:3 bass 
V:4 bass 
V:5 bass 
V:1
"^Le vent dans la plaine\nSuspend son haleine.\n                (FAVART)" z3[Q:1/4=32]"_Lent et caressant." | %1
w: |
 z3 | z!p!"^rêveusement." (A G | !tenuto!G3/2 F/ E/ D/ | D C2) | z z/!p! (C/ F/ A/ | %6
w: |C'est l'ex-|ta- se lan- gou-|reu- se,|C'est la fa-|
!<(! c2 ^B/!<)! G/ |!p! c2!>(! ^B!>)! | =B2) z | z3 | %10
w: ti- gue~a- mou-|reu- *|se,||
[Q:1/4=34]"^Un poco mosso." z!pp! (!tenuto!G/ !tenuto!G/ !tenuto!G/!<(! !tenuto!G/!<)! | %11
w: C'est tous les fris-|
 !tenuto!^A/!>(! !tenuto!A/ !tenuto!A)!>)! !tenuto!A | %12
w: sons des bois Par-|
 !tenuto!G/ !tenuto!G/ !tenuto!G !tenuto!G/ !tenuto!G/ | !tenuto!^A2- A | %14
w: mi l'é- trein- te des|bri- ses.|
 z/ !>!_B/!<(! z/ (B/ B/!<)! B/ |!>(! =c/!>)! =G/!p!!>(! G!>)! E) | %16
w: C'est, vers les ra-|mu- res gri- ses,|
!pp!"^molto  rit."[Q:1/4=31] !tenuto!.=D/ !tenuto!.D/ !tenuto!.D/[Q:1/4=30] !tenuto!.D/ !tenuto!.D/ !tenuto!.D/ | %17
w: Le choeur des pe- ti- tes|
[Q:1/4=29] !tenuto!.^D3 | z3 | z/!p! (G c/ c/ G/ | G/ F/ G G) | %21
w: voix.||O le frê- le~et|frais mur- mu- re,|
 z/"^poco  a  poco  animato."[Q:1/4=31] (G/ G/[Q:1/4=32] B/ A | G/[Q:1/4=33] d/ d!<(! c/) (G/!<)! | %23
w: Ce- la ga- zouille|et su- su- re, Ce-|
 g-[Q:1/4=34] g/!>(!=g/ f/!>)!^e/ |[Q:1/4=35]!p!!>(! g-g/=g/ f/!>)! ^e/ | %25
w: la  _ _ res- *|\- semble _ _ au cri|
"^di    -    mi    -    nu    -    en    -    do"!>(! ^e d/ =d/ c/ ^B/!>)! | =B/ ^A/ A2 | %27
w: doux Que l'herbe a- gi-|tée ex- pi-|
[Q:1/4=30]"^a tempo." =A2) z |"^sempre dolcissimo." z (F/ F/ A) | z/ (F/ F/ F/ c- | c A F) | %31
w: re.|Tu di- rais,|sous l'eau qui vi-|* * re,|
 (F/=F/ E/^D/ =D/C/) | (^F/=F/ E/^D/ =D/C/ | F2) z | z3 | z z z/!p! (F/ | B B/ B/ B/ B/ | %37
w: Le _ rou- * lis *|sourd * des * cail- *|loux,||Cette|â- me qui se la-|
 (=c) c/) (c/ c/ c/ | d B/ F/ F/ D/) | %39
w: \- men- te En cet- te|plain- te dor- man- te,|
"^poco   o   poco   animato         e                       cre       -"!<(! (=D/ A/[Q:1/4=32] A =F) | %40
w: C'est la nô- tre,|
 (3z/ (A/ !tenuto!c/)[Q:1/4=34] !tenuto!c z/ (c/ | %41
w: n'est– ce pas? La|
"^-  scen -               - do        -             -        -         -          -" c B) z/ =d/ | %42
w: mien- ne, dis,|
 (3z/ (=f/[Q:1/4=35] a/) a2- |!mf! a/!<)! a/!>(! (g f |[Q:1/4=30] d c/ A/ G/!>)! F/ | %45
w: et la tien-|* ne Dont s'e-|xa  \-- * le l'hum- ble~an-|
 C-)!pp! C/"^murmure." C/ .=C/ .C/ | !tenuto!.^C/ !tenuto!.C/ !tenuto!.C z/!ppp! !tenuto!.E/ | %47
w: tien- * ne Par ce|tiè- de soir, tout|
 !tenuto!.E2[Q:1/4=28] z |[Q:1/4=26] z3 |[Q:1/4=24] z3 | z3 | z3 |] %52
w: bas.|||||
V:2
 z!pp! ([gc'-g']!>(![fc'f'] | [dad'][cf-c']/[Afa]/[Gd-g]/!>)![Fdf]/ | [CFc]3-) | [CFc]2 z | %4
 z!pp!!>(! ([gc'g'][fc'f'] | [dad'][cf-c']/[Afa]/[Gd-g]/!>)![Fdf]/ | %6
!<(! ([CFc]>)[Dd][F^Bf]/!<)![Gg]/) |!p!!>(! ([CFc]>[Dd][F^Bf]/!>)![Gg]/) | z!pp!!>(! [=Beb]2-!>)! | %9
 [Beb]2 z |!pp! (!tenuto!.[G,B,D]/!tenuto!.[G,B,D] !tenuto!.[G,B,D]3/2) | %11
 (!tenuto!.[=G,_B,=D]/!tenuto!.[G,B,D] !tenuto!.[G,B,D]3/2) | %12
 (!tenuto!.[^G,=B,^D]/!tenuto!.[G,B,D] !tenuto!.[G,B,D]3/2) | %13
 (!tenuto!.[=G,_B,=D]/!<(!!tenuto!.[G,B,D]!<)! !tenuto!.[G,B,D]3/2) | %14
!>(! (!tenuto!.[=G,_D=F]/!tenuto!.[G,DF]!>)! !tenuto!.[G,DF]3/2) | %15
!pp!!>(! ([=G,=CE]/[G,CE]!>)! [G,CE]3/2) |!pp!!>(! =D/D!>)! D3/2 |!ppp! z ([gc'g']!>(![ff'] | %18
 [dad'][cfc']/[Aa]/[Gdg]/!>)![Ff]/ | !arpeggio![CFc]3) | ([Gc]/(([CG])(([cg]))[Gc]/)) | %21
!>(! ([gc'][gb]!>)![e^a]) |!>(! ([Gc][GB]!>)![E^A]) |!p!!<(! (^E-E/F/^^F/!<)!G/) | %24
!p!!<(! ^E-E/F/^^F/!<)!G/ |"^di    -    mi    -    nu    -    en    -    do" ^AB/^B/c/^^c/ | %26
 d/ee^e/ |!ppp!!ppp! ([cc']-[cc']/[=c=c']/[Bb]/[_B_b]/ | %28
"^sempre dolcissimo." [cfc']) ([=DF]/E/)([DF]/E/) | ([cc']-[cc']/[=c=c']/[Bb]/[_B_b]/ | %30
 [cfc']) ([=DF]/E/)([DF]/E/) | (C-C/=C/B,/_B,/) | (^C-C/=C/B,/_B,/ | %33
 A,/)!tenuto!.A,!tenuto!.A,!tenuto!.A,/ |!<(! A,/(([=DF](([FA]))!<)![=df]/)) | %35
 z!mp!!>(! ([bb']!>)![aa']) | !>!F3 | z!mp!!>(! ([bb']!>)![aa']) | z/ [A^df][FAd][DFA]/ | %39
 z!>(! [ee']!>)![=d=d'] | [B,^EA]/[B,EA][B,EA][B,EA]/ | %41
"^- scen -                - do        -             -        -         -          -" z ([ee'][=d=d']) | %42
 z!<(! (e!<)!=d) |!mf!!<(! (AA^B!<)! |{[CDFc]} [Aca]3) | (G-G/F/=F/E/) | (G-G/F/=F/E/) | %47
 z (B"^molto            rit.                   e        morendo."A) | z (BA) | z z (([EGB] | %50
"^m.d." [egb]3-)) | [egb] z z |] %52
V:3
!pp! [B,,,F,,]3[K:treble] | [CFA][A,DA][F,B,D] |[K:bass] [B,,A,]3- | [B,,A,]2 z | %4
 [B,,,F,,]3[K:treble] | [CFA][A,DA][F,B,D] |[K:bass] ([B,,A,]2 !arpeggio![F,^B,]) | %7
 (([B,,A,]2 !arpeggio![F,^B,]) | E,,,3)[K:treble] | [A,CF][G,B,E]/[K:bass]B,/G,/E,/ | %10
 B,,- !>!B,,2 | =C, !>!C,2 | B,,- !>!B,,2 | !>!=C,- !>!C,2 | _B,,3 | =G,, !>!G,,2 | %16
 [=D,A,]/[D,A,] [D,A,]3/2 | [B,,,F,,]3[K:treble] | [CFA][A,DA][F,B,D] | !arpeggio![CGe]3 | %20
[K:bass] C3 |[K:treble] ([GB]2 [EG]/E/) |[K:bass] ([G,B,]2 [E,G,]/E,/) | %23
!p! z/ (^E,/- E,/F,/^^F,/G,/) |!p! z/ (^E,/- E,/F,/^^F,/G,/) | z/ (^A,/B,/^B,/C/^^C/ | %26
[K:treble] D/EE^E/ | ([A,CF]/) [A,CG]3/2 [A,CF-]/[_B,CF]/) | %28
[K:bass] ([F,=DF]/[E,E]/) (F,/ E,/) (F,/ E,/) | %29
[K:treble] (!breath!!tenuto!.F/ !tenuto![B,CF]3/2 !tenuto!.[B,CF]) | %30
[K:bass] ([F,=DF]/[E,E]/) (F,/ E,/) (F,/ E,/) | F,/=F,/E,/F,/^F,/=G,/ | F,/=F,/E,/F,/^F,/=G,/ | %33
 F,/F,F,F,/ | D,,, z2 |[K:treble] =C3 | z/ !tenuto!.[A^df]3/2 !tenuto!.[A^df] | (=C3 | B,3) | %39
[K:bass] [=G,,=D,]3 | z (A,^E, | [=G,,=D,]3) | [A,B,=D=F]/[A,B,DF][A,B,DF][A,B,DF]/ | %43
!<(! z F,2!<)! |{A,} [=B,D]3 | (G,-G,/F,/=F,/E,/) | G,-G,/F,/=F,/E,/ | %47
 [E,B,]/ [E,B,] [E,B,] [E,B,]/ | [=D,A,]/ [D,A,] [D,A,] [D,A,]/ | [B,,G,]"^m.g." [B,,G,]2- | %50
 [B,,G,]3- | [B,,G,] z z |] %52
V:4
 z[K:treble] [DAc]2 | x3 |[K:bass] x3 | x3 | z[K:treble] [DAc]2 | x3 |[K:bass] B,,A,,[G,,F,] | %7
 B,,A,,[G,,F,] | z[K:treble] [CEA][B,EG] | x3/2[K:bass] x3/2 | E,,3- | E,,3 | E,,3- | E,,3 | %14
 _E,,- !>!E,,2 | =C,,3 | F,,3 | [^D,A,]3[K:treble] | x3 | x3 |[K:bass] x3 |[K:treble] (C2 F,) | %22
[K:bass] (C,2 F,,) | [C,,G,,]3 | [C,,G,,]3 | [G,,,G,,]3 |[K:treble] x3 | =G,2 G, | %28
[K:bass] x [=D,,A,,]2 |[K:treble] [=G,B,C]3 |[K:bass] x [=D,,A,,]2 | %31
 (([=G,,,=D,,=G,,]2 [D,,G,,=D,])) | (([=G,,,=D,,=G,,]2 [D,,G,,=D,])) | !>!=D,,,3- | F,/ x5/2 | %35
[K:treble] x3 | B,3 | x3 | x3 |[K:bass] x3 | C,,3 | x3 | x3 | [B,,,B,,]3 | x3 | %45
 [E,,B,,]2 [=C,,=G,,] | [E,,B,,]2 [=C,,=G,,] | ([=G,,,=D,,=G,,]3 | [=F,,,=C,,=F,,]3 | %49
 [E,,,B,,,E,,]3-) | [E,,,B,,,E,,]3- | [E,,,B,,,E,,] x2 |] %52
V:5
 x[K:treble] x2 | x3 |[K:bass] x3 | x3 | x[K:treble] x2 | x3 |[K:bass] x3 | x3 | x[K:treble] x2 | %9
 x3/2[K:bass] x3/2 | x3 | x3 | x3 | x3 | x3 | x3 | C,, C,,2 | z[K:treble] [DAc]2 | x3 | x3 | %20
[K:bass] x3 |[K:treble] x3 |[K:bass] x3 | x3 | x3 | x3 |[K:treble] x3 | x3 | %28
[K:bass] x z/ x/ z/ x/ |[K:treble] x3 |[K:bass] x z/ x/ z/ x/ | x3 | x3 | x3 | x3 |[K:treble] x3 | %36
 x3 | x3 | x3 |[K:bass] x3 | x3 | x3 | x3 | x3 | x3 | x3 | x3 | x3 | x3 | x3 | x3 | x3 |] %52
V:6
 x3 | x3 | x3 | x3 | x3 | x3 | x3 | x3 | x3 | x3 | x3 | x3 | x3 | x3 | x3 | x3 | x3 | ^C3 | x3 | %19
 z/[I:staff +1] e[I:staff -1]GC/ | x3 | (de/d/c/G/) | DE/D/C/[I:staff +1]G,/ | %23
[I:staff -1] [^E,B,D]/ [B,D]3/2 [B,D] | [^E,B,D]/ [B,D]3/2 [B,D] | [^A,DG]/[DG]/ G [G^B] | %26
 [GB]3/2 [Bd]3/2 | f2 f | x3 | f2 f | x3 | x3 | x3 | x3 | x3 |{[=df]} [Adf]3 | x3 | %37
{[A=df]} [Adf]3 | F3 | !tenuto!.[B,=F=A]/!tenuto!.[B,FA]!tenuto!.[B,FA]!tenuto!.[B,FA]/ | x3 | %41
 [B,=FA]/[B,FA] [B,FA][B,FA]/ | x3 | [A,C^D]/[CD]/ [B,D]/D/ [^B,DF]/[DF]/ | x3 | C2 =C | C2 =C | %47
 E/ E E E/ | =D/ D D D/ | B, B,2- | B,3- | B, x2 |] %52

